X:1
T:Title
%%score { 1 | 2 }
L:1/8
M:4/4
K:Eb
V:1 treble nm="Grand Piano"
V:2 bass 
V:1
 z4 z2[Q:1/4=100] [GB]2 | [GB][GB][_G=A][=GB] [Ac][GB]GE | D[CE][DF][EG] [DA]3 [DA] | %3
 [FA][FA][=EG][FA] [Bd][Ac][GB][FA] | [EG][FA][GB][Ac] [GB]3 [GB] | %5
 [GB][GB][_G=A][=GB] [Ge]3 [EG] | [CG][CF][C=E][CF] [Fc]3 [Dc] | %7
 [EB][B,GB][CBd][DAc] [EGB][DFA][B,EG][A,DF] |[M:7/8] [G,E]2 [B,EG]2 [G,E]3 |[M:1/8] [GB] | %10
[M:4/4] [GB][GB][_G=A][=GB] [Ac][GB]GE | D2 [DA]2 [DA]3 [DA] | [FA][FA][=EG][FA] [Bd][Ac][GB][FA] | %13
 [EG]2 [Ac]2 [GB]3 [GB] | [GB][GB][_G=A][=GB] [Ge]3 [EG] | [CG][CF][C=E][CF] [Fc]3 [Dc] | %16
 [EB][B,GB][CBd][DAc] [EGB][DFA][B,EG][A,DF] |[M:15/8] [G,E]2 [B,EG]-[B,EG] [G,E]2- [G,E] z2 z6 |] %18
V:2
 z4 z2 [E,E]2 | [E,E][E,E][E,E][E,E] [E,E][E,E][E,B,E][E,G,B,] | %2
 [B,,F,B,][B,,G,][B,,A,][B,,G,] [B,,F,]3 [B,,F,] | %3
 [B,,B,][B,,B,][B,,B,][B,,B,] [B,,B,][B,,B,][B,,B,][B,,B,] | [E,B,][E,B,][E,E][E,E] [E,E]3 [E,E] | %5
 [E,E][E,E][E,C][E,B,] [E,B,]3 [E,B,] | [A,,A,][A,,A,][A,,A,][A,,A,] [A,,A,]3 [A,,A,] | %7
 [B,,G,]B,,B,,B,, B,,B,,B,,B,, |[M:7/8] E,2 E,2 E,3 |[M:1/8] [E,E] | %10
[M:4/4] [E,E][E,E][E,E][E,E] [E,E][E,E][E,B,E][E,G,B,] | [B,,F,B,]2 [B,,F,]2 [B,,F,]3 [B,,F,] | %12
 [B,,B,][B,,B,][B,,B,][B,,B,] [B,,B,][B,,B,][B,,B,][B,,B,] | [E,B,]2 [E,E]2 [E,E]3 [E,E] | %14
 [E,E][E,E][E,C][E,B,] [E,B,]3 [E,B,] | [A,,A,][A,,A,][A,,A,][A,,A,] [A,,A,]3 [A,,A,] | %16
 [B,,G,]B,,B,,B,, B,,B,,B,,B,, |[M:15/8] E,2 E,-E, E,2- E, z2 z6 |] %18

